src/assets/support-digital.svg

<svg xmlns="http://www.w3.org/2000/svg" width="65" height="50" viewBox="0 0 65 50">
  <g fill="#010400" transform="translate(.5)">
    <path d="M62.1210938,13.0253906 L52.1015625,13.0253906 C51.03125,13.0253906 50.0976562,13.8334961 50.0976562,14.9042969 L50.0976562,17.0332031 L39.0761719,17.0332031 C38.0058594,17.0332031 37.0722656,17.8413086 37.0722656,18.9121094 L37.0722656,40.078125 L2.00390625,40.078125 C1.96923825,40.078125 1.87890625,39.987793 1.87890625,39.953125 L1.87890625,35.9453125 L35.0683594,35.9453125 L35.0683594,34.0664063 L1.87890625,34.0664063 L1.87890625,1.87890625 C1.87890625,1.84423825 1.96923825,1.87890625 2.00390625,1.87890625 L56.109375,1.87890625 C56.144043,1.87890625 56.109375,1.84423825 56.109375,1.87890625 L56.109375,10.8964844 L57.9882812,10.8964844 L57.9882812,1.87890625 C57.9882812,0.8081055 57.1801757,0 56.109375,0 L2.00390625,0 C0.93359375,0 0,0.8081055 0,1.87890625 L0,39.953125 C0,41.0234375 0.93359375,41.9570313 2.00390625,41.9570313 L23.0449219,41.9570313 L23.0449219,48.09375 L19.0371094,48.09375 L19.0371094,49.9726563 L39.0761719,49.9726563 L39.0761719,48.09375 L34.9433594,48.09375 L34.9433594,41.9570313 L37.0722656,41.9570313 L37.0722656,43.9609375 C37.0722656,45.03125 38.0058594,45.9648438 39.0761719,45.9648438 L56.109375,45.9648438 C57.1801758,45.9648438 57.9882812,45.03125 57.9882812,43.9609375 L57.9882812,36.9472656 L62.1210938,36.9472656 C63.1918945,36.9472656 64,36.0136719 64,34.9433594 L64,14.9042969 C64,13.8334961 63.1918945,13.0253906 62.1210938,13.0253906 Z M33.0644531,48.09375 L24.9238281,48.09375 L24.9238281,41.9570312 L33.0644531,41.9570312 L33.0644531,48.09375 Z M52.1015625,14.9042969 L62.1210937,14.9042969 C62.1557617,14.9042969 62.1210937,14.8696289 62.1210937,14.9042969 L62.1210937,17.0332031 L51.9765625,17.0332031 L51.9765625,14.9042969 C51.9765625,14.8696289 52.0673828,14.9042969 52.1015625,14.9042969 Z M51.9765625,18.9121094 L62.1210938,18.9121094 L62.1210938,31.0605469 L51.9765625,31.0605469 L51.9765625,18.9121094 Z M56.109375,44.0859375 L39.0761719,44.0859375 C39.0419922,44.0859375 38.9511719,43.9956055 38.9511719,43.9609375 L38.9511719,41.9570312 L56.109375,41.9570312 L56.109375,43.9609375 C56.109375,43.9956055 56.144043,44.0859375 56.109375,44.0859375 Z M56.109375,40.078125 L38.9511719,40.078125 L38.9511719,18.9121094 C38.9511719,18.8774414 39.0419922,18.9121094 39.0761719,18.9121094 L50.0976562,18.9121094 L50.0976562,34.9433594 C50.0976562,36.0136719 51.03125,36.9472656 52.1015625,36.9472656 L56.109375,36.9472656 L56.109375,40.078125 Z M62.1210937,35.0683594 L52.1015625,35.0683594 C52.0673828,35.0683594 51.9765625,34.9780274 51.9765625,34.9433594 L51.9765625,32.9394531 L62.1210937,32.9394531 L62.1210937,34.9433594 C62.1210937,34.9780274 62.1557617,35.0683594 62.1210937,35.0683594 Z"/>
    <polygon points="24.047 30.059 26.051 30.059 26.051 31.938 24.047 31.938"/>
    <polygon points="28.055 30.059 30.059 30.059 30.059 31.938 28.055 31.938"/>
    <polygon points="32.063 30.059 34.066 30.059 34.066 31.938 32.063 31.938"/>
    <polygon points="5.887 8.893 5.887 5.887 9.018 5.887 9.018 4.008 4.008 4.008 4.008 8.893"/>
    <polygon points="40.078 23.922 41.957 23.922 41.957 21.918 44.086 21.918 44.086 20.039 40.078 20.039"/>
    <polygon points="53.104 20.039 53.104 23.922 54.982 23.922 54.982 21.918 57.111 21.918 57.111 20.039"/>
  </g>
</svg>

<svg xmlns="http://www.w3.org/2000/svg" width="64" height="50"><g fill="#01171A"><path d="M62.121 13.025h-10.02c-1.07 0-2.003.808-2.003 1.88v2.128H39.076c-1.07 0-2.004.808-2.004 1.88v21.165H2.004c-.035 0-.125-.09-.125-.125v-4.008h33.19v-1.879H1.878V1.88c0-.035.09 0 .125 0h54.105c.035 0 0-.035 0 0v9.017h1.88V1.88C57.988.809 57.18 0 56.108 0H2.004C.934 0 0 .808 0 1.879v38.074c0 1.07.934 2.004 2.004 2.004h21.04v6.137h-4.007v1.879h20.04v-1.88h-4.134v-6.136h2.13v2.004c0 1.07.933 2.004 2.003 2.004H56.11c1.071 0 1.88-.934 1.88-2.004v-7.014h4.132c1.07 0 1.879-.933 1.879-2.004V14.904c0-1.07-.808-1.879-1.879-1.879zM33.064 48.094h-8.14v-6.137h8.14v6.137zm19.038-33.19h10.02c.034 0 0-.034 0 0v2.13H51.976v-2.13c0-.034.09 0 .125 0zm-.125 4.008H62.12v12.149H51.977V18.912zm4.132 25.174H39.076c-.034 0-.125-.09-.125-.125v-2.004H56.11v2.004c0 .035.035.125 0 .125zm0-4.008H38.951V18.912c0-.035.091 0 .125 0h11.022v16.031c0 1.07.933 2.004 2.004 2.004h4.007v3.131zm6.012-5.01h-10.02c-.034 0-.124-.09-.124-.125V32.94H62.12v2.004c0 .035.035.125 0 .125z"/><path d="M24.047 30.059h2.004v1.879h-2.004zM28.055 30.059h2.004v1.879h-2.004zM32.063 30.059h2.003v1.879h-2.003zM5.887 8.893V5.887h3.131V4.008h-5.01v4.885zM40.078 23.922h1.879v-2.004h2.129v-1.879h-4.008zM53.104 20.039v3.883h1.878v-2.004h2.129v-1.879z"/></g></svg>
